packages/ui-icons/svg/Solid/complete.svg

<svg viewBox="0 0 1920 1920" version="1.1" xmlns="http://www.w3.org/2000/svg">
    <path d="M854.343529,1317.68471 L503.209412,966.550588 L583.058824,886.701176 L854.343529,1157.98588 L1374.55059,637.665882 L1454.4,717.628235 L854.343529,1317.68471 Z M960.056471,0 C430.701176,0 0.0564705882,430.644706 0.0564705882,960 C0.0564705882,1489.35529 430.701176,1920 960.056471,1920 C1489.29882,1920 1920.05647,1489.35529 1920.05647,960 C1920.05647,430.644706 1489.29882,0 960.056471,0 L960.056471,0 Z" stroke="none" stroke-width="1" fill-rule="evenodd"/>
</svg>

<svg viewBox="0 0 1920 1920" version="1.1" xmlns="http://www.w3.org/2000/svg">
    <path d="M854.344 1317.685L503.209 966.55l79.85-79.85 271.285 271.285 520.207-520.32 79.849 79.962-600.056 600.057zM960.056 0c-529.355 0-960 430.645-960 960s430.645 960 960 960c529.243 0 960-430.645 960-960S1489.3 0 960.056 0z" stroke="none" stroke-width="1" fill-rule="evenodd"/>
</svg>
